X: 7460
T: Clutha
R: hornpipe
M: 4/4
K: Gmajor
|:G>B|d2 e>^c d>BG>B|d>^ce>c d2 (3def|g>fe>d c>BA>G|F>GA>B A2 A>B|
c2 d>B c>AF>A|c>Bd>B c2 (3cdc|a>gf>e d>ed>c|1 c2B2B2:|2 B2G2G2||
|:g>f|(3ege c2 (3ege c2|(3BdB G2 G>BA>G|F>GA>B c>de>f|a>g (3gfe d2 g>f|
(3ege c2 (3ege c2|(3BdB G2 G>BA>G|F>GA>B c>de>f|g2g2g2:|

